X: 21948
T: Kitty In The Lane
R: reel
M: 4/4
K: Ddorian
|:dcAB c3 A|GEED c3 e|dcAB cBcA|GEcE EDD2|
dcAB c3 A|GEED cBce|dcAB cded|cAGE EDD2:|
|:Adde fded|cBca gece|d3e fdcd|ea~a2 gece|
d2de fded|cBcd e=fg2|a=fge (3Bcd ed|cAGE EDD2:|

